Tizora/dist/assets/img/logo_header.svg

<svg width="228" height="48" viewBox="0 0 228 48" fill="none" xmlns="http://www.w3.org/2000/svg">
<g clip-path="url(#clip0_12_4)">
<path d="M58.2146 0.0410156V7.70764H53.8553V3.28481L4.53341 3.408V7.70764H0V0.0410156H58.2146Z" fill="white"/>
<path d="M50.0765 23.8505V30.6549H54.2268V17.3864H37.3586V44.1756L53.8379 44.1287V39.348H58.3888V48.0001H0V39.348H4.37669V44.2636L21.0302 44.2166V17.3864H4.16192V30.6549H8.31223V23.8505H13.8847V34.9193H0V12.1365H26.2253V44.2049L32.1634 44.1873V12.1365H58.3888V34.9193H44.5041V23.8505H50.0765Z" fill="white"/>
<path d="M72.117 27.5224C72.4475 27.5376 72.7779 27.4918 73.0922 27.3875C73.3103 27.3074 73.4947 27.1542 73.6146 26.9534C73.7416 26.7313 73.8152 26.4822 73.8294 26.2261C73.8294 25.9386 73.87 25.5984 73.87 25.2054V1.10276H67.1367C66.2682 1.05345 65.4039 1.25703 64.6465 1.68934C64.0467 2.0804 63.71 2.40888 63.6365 2.6748H63.4043L63.9093 0.234619H88.579L89.0433 2.6748H88.8112C88.7589 2.41084 88.4106 2.08822 87.7605 1.68934C86.9343 1.25584 86.0084 1.05333 85.0788 1.10276H78.6589V25.223C78.6256 25.8205 78.7104 26.4187 78.9085 26.9828C79.0768 27.364 79.576 27.5693 80.4061 27.5693V27.8098H72.117V27.5224Z" fill="white"/>
<path d="M93.7911 2.79212C93.861 2.14162 93.7399 1.4847 93.4428 0.903323C93.2528 0.733916 93.0292 0.607537 92.7869 0.53267C92.5447 0.457803 92.2893 0.436179 92.0381 0.469252V0.234619H100.327V0.469252C100.077 0.436658 99.8225 0.458526 99.5812 0.533391C99.3399 0.608255 99.1173 0.734385 98.9282 0.903323C98.6311 1.4847 98.5099 2.14162 98.5799 2.79212V25.223C98.5099 25.8735 98.6311 26.5304 98.9282 27.1118C99.1177 27.2797 99.3406 27.4048 99.5819 27.4786C99.8231 27.5525 100.077 27.5734 100.327 27.54V27.7805H92.0381V27.54C92.2889 27.5739 92.544 27.5532 92.7862 27.4793C93.0285 27.4055 93.2524 27.2802 93.4428 27.1118C93.7399 26.5304 93.861 25.8735 93.7911 25.223V2.79212Z" fill="white"/>
<path d="M110.015 26.8947H125.467C126.435 26.9426 127.397 26.7193 128.247 26.2495C128.519 26.1204 128.762 25.9369 128.962 25.71C129.161 25.4832 129.313 25.2177 129.408 24.9297H129.64L129.06 27.7629H103.833V27.5224L122.477 1.10273H108.929C107.966 1.05983 107.01 1.28722 106.166 1.7597C105.89 1.88582 105.643 2.07046 105.442 2.30117C105.242 2.53187 105.093 2.80329 105.006 3.09711H104.773L105.354 0.263916H128.625V0.46922L110.015 26.8947Z" fill="white"/>
<path d="M147.176 2.01574e-05C149.374 -0.0232609 151.559 0.335886 153.637 1.06173C155.514 1.70942 157.256 2.70393 158.774 3.99464C160.21 5.22863 161.371 6.75596 162.181 8.47613C163.004 10.2463 163.423 12.1809 163.406 14.1366C163.421 16.0526 163.009 17.9474 162.199 19.6798C161.409 21.3632 160.275 22.8585 158.872 24.0675C157.385 25.35 155.671 26.3389 153.822 26.9828C151.743 27.6973 149.558 28.0503 147.362 28.0269C145.15 28.0527 142.95 27.6997 140.855 26.9828C138.978 26.3471 137.239 25.3513 135.735 24.0499C134.326 22.8286 133.187 21.3218 132.392 19.6271C131.576 17.8801 131.163 15.9686 131.184 14.0369C131.166 12.1018 131.579 10.1872 132.392 8.43507C133.181 6.73436 134.314 5.21969 135.718 3.98878C137.208 2.69959 138.925 1.70471 140.779 1.05587C142.835 0.332136 144.999 -0.0251275 147.176 2.01574e-05ZM147.176 0.744979C145.626 0.724393 144.089 1.03419 142.666 1.65418C141.321 2.2414 140.13 3.13475 139.183 4.26447C138.182 5.49133 137.435 6.90985 136.989 8.43507C136.463 10.2279 136.209 12.0909 136.234 13.9607C136.209 15.8379 136.471 17.7078 137.012 19.5039C137.463 21.0372 138.218 22.462 139.23 23.6921C140.178 24.8254 141.369 25.726 142.712 26.3258C145.662 27.55 148.969 27.55 151.919 26.3258C153.263 25.7463 154.455 24.8586 155.401 23.7331C156.391 22.524 157.133 21.1283 157.584 19.6271C158.11 17.8624 158.365 16.0264 158.338 14.1836C158.366 12.2927 158.103 10.409 157.561 8.59931C157.098 7.05473 156.339 5.61752 155.326 4.37006C154.364 3.21857 153.161 2.29869 151.802 1.67764C150.344 1.03638 148.766 0.718351 147.176 0.744979Z" fill="white"/>
<path d="M190.566 27.763C189.772 27.771 188.978 27.7181 188.192 27.6046C187.564 27.514 186.954 27.3281 186.381 27.0532C185.84 26.7805 185.336 26.4373 184.883 26.0326C184.361 25.5476 183.892 25.0067 183.485 24.4195L173.036 10.3415V25.2231C173.036 26.1909 173.152 26.8244 173.39 27.1119C173.579 27.2814 173.802 27.4075 174.043 27.4815C174.285 27.5554 174.539 27.5754 174.789 27.5401V27.7806H166.518V27.5401C166.768 27.5754 167.022 27.5554 167.264 27.4815C167.505 27.4075 167.728 27.2814 167.916 27.1119C168.154 26.8244 168.271 26.1909 168.271 25.2231V2.79218C168.271 1.82432 168.154 1.19081 167.916 0.903384C167.728 0.732793 167.506 0.605603 167.264 0.530646C167.023 0.455689 166.768 0.434761 166.518 0.469313V0.23468H179.746C181.287 0.221991 182.824 0.361478 184.338 0.651154C185.561 0.873631 186.747 1.26854 187.861 1.82432C188.734 2.25191 189.499 2.87597 190.096 3.64859C190.61 4.33947 190.884 5.18312 190.874 6.04771C190.878 6.84359 190.65 7.6231 190.218 8.28845C189.739 9.00194 189.114 9.60227 188.384 10.0482C187.525 10.5864 186.586 10.9824 185.603 11.2214C184.45 11.5052 183.267 11.6432 182.08 11.632C180.643 11.6225 179.211 11.4772 177.802 11.1979C176.45 10.9667 175.131 10.5729 173.872 10.0247L174.574 10.9691C175.067 11.6072 175.718 12.1029 176.461 12.4063C177.186 12.7054 177.959 12.9928 178.783 13.3096C179.649 13.6355 180.489 14.0277 181.296 14.4828C182.248 15.0573 183.069 15.8289 183.705 16.747L188.581 23.4633C189.376 24.604 190.341 25.6132 191.443 26.4549C192.213 27.0843 193.159 27.4536 194.148 27.5107V27.7512L190.566 27.763ZM173.054 8.65213C173.459 8.95011 173.905 9.1872 174.377 9.35603C174.946 9.57503 175.528 9.75916 176.118 9.90742C176.757 10.0658 177.39 10.189 178.028 10.2828C178.614 10.3712 179.206 10.4163 179.799 10.4177C180.531 10.4146 181.261 10.33 181.975 10.1655C182.708 10.019 183.414 9.75564 184.065 9.38536C184.675 9.03441 185.196 8.54431 185.586 7.9541C185.99 7.30154 186.192 6.5416 186.166 5.77201C186.192 4.99404 185.968 4.22845 185.528 3.58993C185.05 2.96084 184.42 2.46605 183.699 2.1528C182.775 1.74888 181.797 1.48406 180.797 1.36678C179.552 1.20219 178.297 1.12379 177.041 1.13215H173.03L173.054 8.65213Z" fill="white"/>
<path d="M218.701 27.5224C219.097 27.5431 219.493 27.477 219.862 27.3289C219.978 27.2753 220.082 27.199 220.169 27.1044C220.256 27.0097 220.323 26.8986 220.367 26.7775C220.442 26.515 220.442 26.2363 220.367 25.9738C220.273 25.6377 220.142 25.3131 219.978 25.006L216.199 17.6972H202.471L198.657 24.9708C198.49 25.2768 198.354 25.5991 198.251 25.9328C198.162 26.1908 198.142 26.4681 198.193 26.7364C198.217 26.8571 198.266 26.9715 198.336 27.0724C198.406 27.1733 198.495 27.2586 198.599 27.323C198.905 27.4836 199.248 27.5567 199.592 27.5342V27.7747H194.948V27.5342C195.262 27.535 195.568 27.432 195.819 27.2409C196.107 27.032 196.368 26.7876 196.597 26.5135C196.84 26.236 197.061 25.9399 197.258 25.6278C197.431 25.3727 197.582 25.1039 197.711 24.8241L210.708 0H211.869L225.057 25.006C225.28 25.4595 225.528 25.9002 225.8 26.3258C225.978 26.6045 226.195 26.8554 226.444 27.0708C226.64 27.2419 226.872 27.3644 227.123 27.4286C227.41 27.4967 227.705 27.5283 228 27.5224V27.7629H218.712L218.701 27.5224ZM215.74 16.829L209.355 4.51082L202.901 16.829H215.74Z" fill="white"/>
<path d="M80.1847 46.8679C79.0918 47.3001 77.9277 47.519 76.7541 47.5131C75.9956 47.5511 75.2374 47.4335 74.5251 47.1673C73.8128 46.9012 73.1612 46.4921 72.6096 45.9646C72.0614 45.3642 71.636 44.6603 71.3581 43.8932C71.0801 43.126 70.9551 42.311 70.9901 41.4948C70.9901 38.2041 73.132 35.4061 77.1198 35.4061C78.0576 35.3875 78.9889 35.5674 79.8538 35.934L79.5752 36.6203C78.7904 36.2541 77.9315 36.0793 77.0676 36.11C73.846 36.11 71.8434 38.2393 71.8434 41.4596C71.8434 44.8031 73.7764 46.8092 76.876 46.8092C77.716 46.8669 78.5576 46.7221 79.3314 46.3869V42.187H76.6206V41.5007H80.1731L80.1847 46.8679Z" fill="white"/>
<path d="M85.1131 43.2253L83.6677 47.3783H82.8145L87.0692 35.5176H87.8703L92.1019 47.3783H91.2486L89.7684 43.2253H85.1131ZM89.5014 42.5214L88.0734 38.5619C87.7948 37.7349 87.6381 37.1365 87.493 36.4678H87.4582C87.284 37.1541 87.0925 37.7701 86.8487 38.5267L85.4033 42.5214H89.5014Z" fill="white"/>
<path d="M94.9697 35.5176H95.8056V46.6626H101.03V47.3665H94.9697V35.5176Z" fill="white"/>
<path d="M103.845 35.5176H104.686V46.6626H109.911V47.3665H103.845V35.5176Z" fill="white"/>
<path d="M118.252 41.4831H113.567V46.6744H118.791V47.3783H112.731V35.5176H118.536V36.2215H113.573V40.7792H118.257L118.252 41.4831Z" fill="white"/>
<path d="M121.897 35.6758C122.735 35.5112 123.587 35.4287 124.44 35.4294C125.972 35.4294 126.947 35.7638 127.609 36.4149C128.147 36.9823 128.441 37.7412 128.428 38.5266C128.439 39.2308 128.216 39.9186 127.796 40.48C127.375 41.0415 126.78 41.4442 126.106 41.6238V41.6472C127.046 41.9464 127.638 42.8204 127.917 44.1637C128.095 45.2591 128.387 46.3326 128.788 47.3664H127.934C127.596 46.4301 127.345 45.4639 127.185 44.4804C126.82 42.7735 126.088 41.9992 124.539 41.9288H122.716V47.3664H121.897V35.6758ZM122.739 41.2542H124.602C126.408 41.2542 127.592 40.2336 127.592 38.6674C127.592 36.8548 126.268 36.1157 124.422 36.1157C123.857 36.1066 123.293 36.1597 122.739 36.2741V41.2542Z" fill="white"/>
<path d="M134.272 47.3783V42.234L130.546 35.5176H131.469L133.402 39.0371C133.901 39.9698 134.319 40.744 134.737 41.5887H134.772C135.12 40.7968 135.608 39.9698 136.13 39.0195L138.133 35.5H139.055L135.103 42.234V47.3548L134.272 47.3783Z" fill="white"/>
</g>
<defs>
<clipPath id="clip0_12_4">
<rect width="228" height="48" fill="white"/>
</clipPath>
</defs>
</svg>

<svg width="228" height="48" fill="none" xmlns="http://www.w3.org/2000/svg"><g clip-path="url(#clip0_12_4)" fill="#fff"><path d="M58.215.041v7.667h-4.36V3.285l-49.322.123v4.3H0V.04h58.215zM50.077 23.85v6.805h4.15V17.386H37.359v26.79l16.479-.047v-4.781h4.55V48H0v-8.652h4.377v4.916l16.653-.047v-26.83H4.162v13.268h4.15V23.85h5.573v11.07H0V12.135h26.225v32.069l5.938-.018v-32.05H58.39v22.782H44.504V23.851h5.573zm22.04 3.672c.33.016.66-.03.975-.134a1.02 1.02 0 00.523-.435c.127-.222.2-.47.214-.727 0-.287.041-.628.041-1.02V1.102h-6.733a4.507 4.507 0 00-2.49.586c-.6.391-.937.72-1.01.986h-.233l.505-2.44h24.67l.464 2.44h-.232c-.052-.264-.4-.587-1.05-.986a5.179 5.179 0 00-2.682-.586h-6.42v24.12a4.548 4.548 0 00.25 1.76c.168.381.667.586 1.497.586v.24h-8.289v-.287zm21.674-24.73a3.363 3.363 0 00-.348-1.889A1.771 1.771 0 0092.038.47V.235h8.289v.234a1.753 1.753 0 00-1.399.434 3.362 3.362 0 00-.348 1.89v22.43c-.07.65.051 1.307.348 1.889a1.764 1.764 0 001.399.428v.24h-8.289v-.24a1.757 1.757 0 001.405-.428 3.363 3.363 0 00.348-1.889V2.793zm16.224 24.103h15.452a5.213 5.213 0 002.78-.645 2.225 2.225 0 001.161-1.32h.232l-.58 2.833h-25.227v-.24l18.644-26.42h-13.548a5.182 5.182 0 00-2.763.657 2.141 2.141 0 00-1.16 1.337h-.233l.581-2.833h23.271v.205l-18.61 26.426zM147.176 0a18.979 18.979 0 016.461 1.062 15.976 15.976 0 015.137 2.933 13.477 13.477 0 013.407 4.481 13.158 13.158 0 011.225 5.66 12.852 12.852 0 01-1.207 5.544 13.185 13.185 0 01-3.327 4.387 15.578 15.578 0 01-5.05 2.916 19.245 19.245 0 01-6.46 1.044 19.396 19.396 0 01-6.507-1.044 15.352 15.352 0 01-5.12-2.933 13.36 13.36 0 01-3.343-4.423 12.881 12.881 0 01-1.208-5.59 13.024 13.024 0 011.208-5.602 13.425 13.425 0 013.326-4.446 15.623 15.623 0 015.061-2.933A18.614 18.614 0 01147.176 0zm0 .745c-1.55-.02-3.087.29-4.51.91a9.512 9.512 0 00-3.483 2.61 11.867 11.867 0 00-2.194 4.17 18.74 18.74 0 00-.755 5.526 18.373 18.373 0 00.778 5.543 11.86 11.86 0 002.218 4.188 9.696 9.696 0 003.482 2.634 12 12 0 009.207 0 9.425 9.425 0 003.482-2.593 11.873 11.873 0 002.183-4.106c.526-1.765.781-3.6.754-5.443a18.512 18.512 0 00-.777-5.585 12.319 12.319 0 00-2.235-4.229 10.02 10.02 0 00-3.524-2.692 11.031 11.031 0 00-4.626-.933zm43.39 27.018a15.52 15.52 0 01-2.374-.158 6.247 6.247 0 01-1.811-.552 6.934 6.934 0 01-1.498-1.02 9.902 9.902 0 01-1.398-1.614l-10.449-14.078v14.882c0 .968.116 1.601.354 1.889a1.725 1.725 0 001.399.428v.24h-8.271v-.24a1.725 1.725 0 001.398-.428c.238-.288.355-.921.355-1.889V2.793c0-.969-.117-1.602-.355-1.89a1.733 1.733 0 00-1.398-.434V.235h13.228a23.401 23.401 0 014.592.416c1.223.223 2.409.618 3.523 1.173a6.362 6.362 0 012.235 1.825c.514.69.788 1.534.778 2.399a4.078 4.078 0 01-.656 2.24 5.939 5.939 0 01-1.834 1.76 9.437 9.437 0 01-2.781 1.173 14.177 14.177 0 01-3.523.411 22.773 22.773 0 01-4.278-.434 17.035 17.035 0 01-3.93-1.173l.702.944a4.568 4.568 0 001.887 1.437c.725.3 1.498.587 2.322.904.866.325 1.706.718 2.513 1.173a7.893 7.893 0 012.409 2.264l4.876 6.716a13.415 13.415 0 002.862 2.992c.77.63 1.716.999 2.705 1.056v.24l-3.582.012zm-17.512-19.11c.405.297.851.534 1.323.703a15.03 15.03 0 001.741.551c.639.159 1.272.282 1.91.376.586.088 1.178.133 1.771.135a9.88 9.88 0 002.176-.252 7.005 7.005 0 002.09-.78 4.535 4.535 0 001.521-1.432 3.897 3.897 0 00.58-2.182 3.633 3.633 0 00-.638-2.182 4.6 4.6 0 00-1.829-1.437 10.217 10.217 0 00-2.902-.786 27.274 27.274 0 00-3.756-.235h-4.011l.024 7.52zm45.647 18.869a2.73 2.73 0 001.161-.193.97.97 0 00.505-.552 1.464 1.464 0 000-.803 4.8 4.8 0 00-.389-.968l-3.779-7.309h-13.728l-3.814 7.274a5.225 5.225 0 00-.406.962 1.568 1.568 0 00-.058.803.897.897 0 00.406.587c.306.16.649.234.993.211v.24h-4.644v-.24c.314.001.62-.102.871-.293.288-.209.549-.453.778-.727.243-.278.464-.574.661-.886.173-.255.324-.524.453-.804L210.708 0h1.161l13.188 25.006c.223.453.471.894.743 1.32a3.4 3.4 0 00.644.745c.196.17.428.293.679.358.287.068.582.1.877.093v.24h-9.288l-.011-.24zM215.74 16.83l-6.385-12.318-6.454 12.318h12.839zM80.185 46.868a9.202 9.202 0 01-3.43.645 5.57 5.57 0 01-2.23-.346 5.615 5.615 0 01-1.915-1.202 6.207 6.207 0 01-1.252-2.072 6.254 6.254 0 01-.368-2.398c0-3.29 2.142-6.089 6.13-6.089a6.666 6.666 0 012.734.528l-.279.686a5.47 5.47 0 00-2.507-.51c-3.222 0-5.225 2.13-5.225 5.35 0 3.343 1.933 5.35 5.033 5.35a5.268 5.268 0 002.455-.423v-4.2h-2.71v-.686h3.552l.012 5.367zm4.928-3.643l-1.445 4.153h-.854l4.255-11.86h.801l4.232 11.86h-.853l-1.48-4.153h-4.656zm4.388-.704l-1.428-3.96a18.164 18.164 0 01-.58-2.093h-.035a32.83 32.83 0 01-.61 2.059l-1.445 3.994h4.098zm5.469-7.003h.836v11.145h5.224v.704h-6.06v-11.85zm8.875 0h.841v11.145h5.225v.704h-6.066v-11.85zm14.407 5.965h-4.685v5.191h5.224v.704h-6.06v-11.86h5.805v.703h-4.963v4.558h4.684l-.005.704zm3.645-5.807a13.14 13.14 0 012.543-.247c1.532 0 2.507.335 3.169.986.538.567.832 1.326.819 2.112a3.18 3.18 0 01-.632 1.953 3.116 3.116 0 01-1.69 1.144v.023c.94.3 1.532 1.173 1.811 2.517.178 1.095.47 2.169.871 3.202h-.854a16.127 16.127 0 01-.749-2.886c-.365-1.706-1.097-2.48-2.646-2.551h-1.823v5.437h-.819v-11.69zm.842 5.578h1.863c1.806 0 2.99-1.02 2.99-2.587 0-1.812-1.324-2.551-3.17-2.551a7.706 7.706 0 00-1.683.158v4.98zm11.533 6.124v-5.144l-3.726-6.716h.923l1.933 3.52c.499.932.917 1.706 1.335 2.55h.035c.348-.791.836-1.618 1.358-2.569l2.003-3.519h.922l-3.952 6.734v5.12l-.831.024z"/></g><defs><clipPath id="clip0_12_4"><path fill="#fff" d="M0 0h228v48H0z"/></clipPath></defs></svg>
